X:1
T:Llangristiolus, 88.88.88.88 D
T:Llangristiolus, 88.88.88.88 D
T:Joseph Parry, 1870
T:Public Domain Courtesy of the Cyber Hymnal™
C:Joseph Parry, 1870
Z:Public Domain
Z:Courtesy of the Cyber Hymnal™
%%score ( 1 2 ) ( 3 4 )
L:1/8
Q:1/4=115
M:3/4
K:Bb
V:1 treble 
V:2 treble 
V:3 bass 
V:4 bass 
V:1
 G2 | d2 B2 G2 | [EA]2 [DG]2 [D^F]2 | [DG]4 G2 | [GB]2 [^FA]2 G2 | [Gd]2 [^Fc]2 [GB]2 | [^FA]4 G2 | %7
 d2 B2 G2 | (BA) [DG]2 [D^F]2 | [DG]4 [GB]2 | [=EA]2 [Dd]2 [GB]2 | (AD) [DF]2 [^C=E]2 | D4 D2 | %13
 [DG]2 G2 [^FA]2 | [GB]2 [GB]2 [Gc]2 | d4 [D=F]2 | [DG]2 [DG]2 D2 | [B,G]2 [FG]2 [EA]2 | B4 G2 | %19
 [Ge]2 [^Fd]2 [FA]2 | [Ac]2 [Ac]2 [GB]2 | [^FA]4 D2 | [CG]2 [B,G]2 [EA]2 | [DB]2 G2 [^FA]2 | G4 |] %25
V:2
 G2 | d2 B2 G2 | x6 | x4 G2 | x4 G2 | x6 | x6 | d2 B2 G2 | E2 x4 | x6 | x6 | F2 x4 | D4 D2 | %13
 x2 G2 x2 | x6 | (G2 ^F2) x2 | x4 D2 | x6 | (E2 D2) G2 | x6 | x6 | x4 D2 | x6 | x6 | G4 |] %25
V:3
 G,2 | D2 B,2 G,2 | [C,C]2 [D,B,]2 [D,A,]2 | [G,B,]4 G,2 | D2 D2 [B,D]2 | [B,D]2 [A,D]2 [G,D]2 | %6
 [D,D]4 G,2 | D2 B,2 G,2 | [C,C]2 [D,B,]2 (A,C) | [G,,G,B,]4 [G,D]2 | [G,^C]2 [F,D]2 [G,D]2 | %11
 [A,D]2 [A,,A,]2 [A,,G,]2 | [D,F,]4 D2 | [B,D]2 [B,D]2 [A,D]2 | [G,D]2 [F,D]2 (G,A,) | %15
 (B,2 A,2) C2 | [G,B,]2 [G,B,]2 [F,A,]2 | [E,B,]2 [D,B,]2 (E,F,) | (G,2 F,2) G,2 | %19
 (CB,) [D,A,]2 [D,D]2 | [^F,E]2 [F,D]2 (D^C) | [D,D]4 D,2 | [E,G,]2 [D,G,]2 [C,G,]2 | %23
 G,2 [D,B,]2 [D,C]2 | [G,,G,B,]4 |] %25
V:4
 G,2 | D2 B,2 G,2 | x6 | x4 G,2 | D2 C2 x2 | x6 | x4 G,2 | D2 B,2 G,2 | x4 D,2 | x6 | x6 | x6 | %12
 x4 (B,,C) | x6 | x4 E,2 | D,4 (D,A,) | x6 | x4 C,2 | B,,4 G,2 | C,2 x4 | x4 G,2 | x4 D,2 | x6 | %23
 (B,,C,) x4 | x4 |] %25

